svgs/light/message-smile.svg

<svg xmlns="http://www.w3.org/2000/svg" viewBox="0 0 512 512"><!-- Font Awesome Pro 6.0.0-alpha2 by @fontawesome - https://fontawesome.com License - https://fontawesome.com/license (Commercial License) --><path d="M448 0H64C28.75 0 0 28.75 0 64V352.002C0 387.252 28.75 416.002 64 416.002H160V500.002C160 509.84 171.025 515.479 179.125 509.627L304 416.002H448C483.25 416.002 512 387.252 512 352.002V64C512 28.75 483.25 0 448 0ZM480 352.002C480 369.602 465.6 384.002 448 384.002H303.924C296.996 384.002 290.254 386.25 284.713 390.408L192 460.002V400.002C192 391.164 184.836 384.002 176 384.002H64C46.4 384.002 32 369.602 32 352.002V64C32 46.4 46.4 32 64 32H448C465.6 32 480 46.4 480 64V352.002ZM319.943 184C333.193 184 343.943 173.25 343.943 160S333.193 136 319.943 136S295.943 146.75 295.943 160S306.693 184 319.943 184ZM331.693 253.25C312.943 275.375 285.318 288 255.943 288S198.943 275.375 180.193 253.375C174.443 246.75 164.318 246 157.693 251.625C150.818 257.375 150.193 267.375 155.818 274.25C180.693 303.25 217.193 320 255.943 320S331.193 303.25 356.193 274.125C361.943 267.375 361.068 257.25 354.318 251.5C347.693 245.75 337.568 246.625 331.693 253.25ZM191.943 184C205.193 184 215.943 173.25 215.943 160S205.193 136 191.943 136S167.943 146.75 167.943 160S178.693 184 191.943 184Z"/></svg>

<svg xmlns="http://www.w3.org/2000/svg" viewBox="0 0 512 512"><!--! Font Awesome Pro 6.3.0 by @fontawesome - https://fontawesome.com License - https://fontawesome.com/license (Commercial License) Copyright 2023 Fonticons, Inc. --><path d="M447.1 .0041h-384c-35.25 0-64 28.75-64 63.1v287.1c0 35.25 28.75 63.1 64 63.1h96v83.99c0 9.838 11.03 15.55 19.12 9.7l124.9-93.69h144c35.25 0 64-28.75 64-63.1V63.1C511.1 28.75 483.2 .0041 447.1 .0041zM480 352c0 17.6-14.4 32-32 32h-144.1c-6.928 0-13.67 2.248-19.21 6.406L192 460v-60c0-8.838-7.164-16-16-16H64c-17.6 0-32-14.4-32-32V64c0-17.6 14.4-32 32-32h384c17.6 0 32 14.4 32 32V352zM319.9 184c13.25 0 24-10.75 24-24s-10.75-24-24-24s-24 10.75-24 24S306.7 184 319.9 184zM331.7 253.3C312.9 275.4 285.3 288 255.9 288S198.9 275.4 180.2 253.4C174.4 246.8 164.3 246 157.7 251.6c-6.875 5.75-7.5 15.75-1.875 22.62c24.88 29 61.44 45.74 100.2 45.74s75.18-16.74 100.2-45.87c5.75-6.75 4.875-16.88-1.875-22.62C347.7 245.8 337.6 246.6 331.7 253.3zM191.9 184c13.25 0 24-10.75 24-24s-10.75-24-24-24s-24 10.75-24 24S178.7 184 191.9 184z"/></svg>
